X: 4
T: Never Was Piping So Gay
R: reel
M: 4/4
L: 1/8
K: Gmaj
G,2B,D GBdB | cafd cAFA | G2BG DGBG | AF (3FFF dFAF |
G2GF GBdB | Aafd ^cdef | ~g3d c2cA |1 FGAF GEDB, :|2 FGAF GABd ||
|: gfgd ^cdBG | DGBd cAFA | GBBA BcdB | cafd ^cdef |
~g3d ^cdBG | DGBd cAFA | BG (3GGG AF (3FFF |1 BFAF GABd :|2 BFAF GEDB, ||


Tune 648	Setting 13678

